icons/umbrella_fill.svg

<svg width="48" height="48" viewBox="0 0 48 48" fill="none" xmlns="http://www.w3.org/2000/svg">
<path fill-rule="evenodd" clip-rule="evenodd" d="M23.9999 4C24.5522 4 24.9999 4.44772 24.9999 5V6.01628C34.157 6.51704 41.4938 13.8538 41.9945 23.0108C42.0106 23.3038 41.6555 23.354 41.4374 23.1577C40.1601 22.0075 38.4695 21.3075 36.6154 21.3075C34.4477 21.3075 32.5035 22.2643 31.182 23.7786C31.0562 23.9228 30.8764 24.0108 30.685 24.0108C30.5155 24.0108 30.3539 23.9418 30.2318 23.8243C28.8411 22.4863 27.0217 21.5907 24.9999 21.3641V39.5C24.9999 40.8807 26.1192 42 27.4999 42C28.8807 42 29.9999 40.8807 29.9999 39.5V38C29.9999 37.4477 30.4477 37 30.9999 37C31.5522 37 31.9999 37.4477 31.9999 38V39.5C31.9999 41.9853 29.9852 44 27.4999 44C25.0147 44 22.9999 41.9853 22.9999 39.5V21.3608C20.9613 21.5824 19.1268 22.4841 17.7279 23.8342C17.6125 23.9456 17.4595 24.0108 17.2991 24.0108C17.118 24.0108 16.9477 23.9275 16.8289 23.7908C15.5072 22.2694 13.5584 21.3075 11.3849 21.3075C9.53077 21.3075 7.84014 22.0075 6.56286 23.1577C6.34473 23.3541 5.9895 23.3039 6.00553 23.0108C6.50631 13.8539 13.843 6.51714 22.9999 6.01629V5C22.9999 4.44772 23.4477 4 23.9999 4Z" fill="black"/>
</svg>

<svg
  xmlns="http://www.w3.org/2000/svg"
  width="24"
  height="24"
  viewBox="0 0 24 24"
  fill="none"
  stroke="currentColor"
  stroke-width="2"
  stroke-linecap="round"
  stroke-linejoin="round"
>
  <path
    fill-rule="evenodd"
    d="M24 4a1 1 0 0 1 1 1v1.016c9.157.501 16.494 7.838 16.995 16.995.016.293-.34.343-.558.147a7.18 7.18 0 0 0-4.822-1.85 7.2 7.2 0 0 0-5.433 2.47.66.66 0 0 1-.497.233.66.66 0 0 1-.453-.187A8.98 8.98 0 0 0 25 21.364V39.5a2.5 2.5 0 0 0 5 0V38a1 1 0 0 1 2 0v1.5a4.5 4.5 0 1 1-9 0V21.36a8.98 8.98 0 0 0-5.272 2.474.62.62 0 0 1-.429.177.63.63 0 0 1-.47-.22 7.2 7.2 0 0 0-5.444-2.483c-1.854 0-3.545.7-4.822 1.85-.218.196-.574.146-.557-.147.5-9.157 7.837-16.494 16.994-16.995V5a1 1 0 0 1 1-1"
    clip-rule="evenodd"
  />
</svg>
